X: 7
T: Rolling In The Barrel
R: reel
M: 4/4
L: 1/8
K: Emin
|: DE E2 BE E2 | B2 AF DEFD | DE E2 BE E2 | B2 Ad BEFD |
DE E2 BE E2 | B2 AF D2 (2FED | DE E2 BE E2 | B2 Ad BE E2 :||
|:e2 (3gfe bege | dcdf a2 fd | e2 (3gfe bege | dBAc BEFD |
e2 (3gfe bege | dcdf a2 fg | afge fdec | dBAc BEED :||


Tune 500	Setting 21580

